icons/desktop/16/svg/globe-slash-16.svg

<svg width="16" height="16" viewBox="0 0 16 16" fill="none" xmlns="http://www.w3.org/2000/svg">
<g clip-path="url(#clip0_6596_1330)">
<path fill-rule="evenodd" clip-rule="evenodd" d="M16.001 14.9404L14.9404 16.001L13.0967 14.1572C11.7118 15.3064 9.93632 16 8 16C3.589 16 0 12.411 0 8C7.94824e-07 6.06377 0.692762 4.28763 1.8418 2.90234L0 1.06055L1.06055 0L16.001 14.9404ZM5.54004 8.75C5.71204 10.796 6.58101 12.723 8 14.21C8.87712 13.2905 9.54032 12.2017 9.96094 11.0215L7.68945 8.75H5.54004ZM1.54688 8.75C1.84288 11.312 3.63248 13.4244 6.02148 14.1904C4.86748 12.6074 4.18204 10.72 4.04004 8.75H1.54688ZM11.1113 12.1719C10.811 12.8832 10.4361 13.5627 9.97852 14.1904C10.7316 13.9489 11.4222 13.5696 12.0264 13.0869L11.1113 12.1719ZM2.91699 3.97754C2.18146 4.89779 1.68932 6.01924 1.54688 7.25H4.04004C4.08483 6.624 4.19116 6.00944 4.34961 5.41016L2.91699 3.97754ZM5.60742 6.66797C5.57825 6.86067 5.55653 7.05489 5.54004 7.25H6.18945L5.60742 6.66797Z" fill="black"/>
<path fill-rule="evenodd" clip-rule="evenodd" d="M8 0C12.411 0 16 3.589 16 8C16 9.48094 15.5877 10.8647 14.8848 12.0557L13.7734 10.9443C14.1184 10.2693 14.3631 9.535 14.4541 8.75H11.9609C11.9529 8.86298 11.9251 8.97298 11.9131 9.08496L10.0781 7.25H10.46C10.288 5.20401 9.41899 3.27704 8 1.79004C7.43603 2.38101 6.96302 3.04395 6.58203 3.75391L5.48926 2.66113C5.65926 2.37314 5.82349 2.08154 6.02148 1.81055C5.68348 1.91855 5.36083 2.0607 5.04883 2.2207L3.94434 1.11621C5.1353 0.412267 6.51906 0 8 0ZM9.97852 1.80957C11.1325 3.39257 11.818 5.28 11.96 7.25H14.4531C14.1571 4.688 12.3675 2.57557 9.97852 1.80957Z" fill="black"/>
</g>
<defs>
<clipPath id="clip0_6596_1330">
<rect width="16" height="16" fill="white"/>
</clipPath>
</defs>
</svg>

<!-- This Source Code Form is subject to the terms of the Mozilla Public
   - License, v. 2.0. If a copy of the MPL was not distributed with this
   - file, You can obtain one at http://mozilla.org/MPL/2.0/. -->
<svg xmlns="http://www.w3.org/2000/svg" width="16" height="16" fill="context-fill" fill-opacity="context-fill-opacity" viewBox="0 0 16 16">
    <g clip-path="url(#clip0_6596_1330)">
        <path d="m16.001 14.94-1.06 1.061-1.844-1.844A7.96 7.96 0 0 1 8 16c-4.411 0-8-3.589-8-8a7.96 7.96 0 0 1 1.842-5.098L0 1.061 1.06 0zM5.54 8.75A9 9 0 0 0 8 14.21a9 9 0 0 0 1.96-3.189L7.69 8.75zm-3.993 0a6.52 6.52 0 0 0 4.474 5.44A10.5 10.5 0 0 1 4.04 8.75zm9.564 3.422c-.3.711-.675 1.39-1.132 2.018a6.4 6.4 0 0 0 2.047-1.103zM2.917 3.978a6.4 6.4 0 0 0-1.37 3.272H4.04a10 10 0 0 1 .31-1.84zm2.69 2.69q-.043.29-.067.582h.65zM8 0c4.411 0 8 3.589 8 8 0 1.48-.412 2.865-1.115 4.056l-1.112-1.112c.345-.675.59-1.409.681-2.194h-2.493c-.008.113-.036.223-.048.335L10.078 7.25h.382A9 9 0 0 0 8 1.79a9 9 0 0 0-1.418 1.964L5.489 2.66c.17-.288.334-.58.532-.85-.338.108-.66.25-.972.41L3.944 1.116A7.95 7.95 0 0 1 8 0m1.979 1.81a10.5 10.5 0 0 1 1.981 5.44h2.493A6.52 6.52 0 0 0 9.98 1.81" />
    </g>
</svg>
